layouts/icon-pack/potion_health.svg

<?xml version="1.0" encoding="UTF-8"?>
<svg width="1200pt" height="1200pt" version="1.1" viewBox="0 0 1200 1200" xmlns="http://www.w3.org/2000/svg">
 <g fill="#fff">
  <path d="m521.23 160.92h159.05c18.098 0 35.457-7.1914 48.25-19.992 12.797-12.801 19.984-30.16 19.977-48.258v-18.75c0-4.7109-1.8711-9.2305-5.2031-12.562s-7.8516-5.2031-12.562-5.2031h-259.97c-4.7109 0-9.2305 1.8711-12.562 5.2031s-5.2031 7.8516-5.2031 12.562v18.75c-0.007812 18.098 7.1797 35.457 19.977 48.258 12.793 12.801 30.152 19.992 48.25 19.992z"/>
  <path d="m599.25 1143.9h1.5c219.42-0.42187 334.99-88.875 395.06-171.42 59.18-81.328 75.914-185.41 48.305-282.14-30.188-105.82-98.883-174.89-150-213.73-26.352-19.594-55.301-35.426-86.016-47.039-19.762-7.543-38.203-18.176-54.633-31.5-42-34.406-65.273-86.719-65.273-140.93v-24.773c0-6.3281-2.5234-12.398-7.0078-16.863-4.4883-4.4648-10.57-6.957-16.898-6.9258h-128.58c-6.3125-0.007812-12.371 2.4961-16.836 6.9609-4.4688 4.4609-6.9766 10.516-6.9766 16.828v24.773c0 54.281-23.273 106.52-65.273 140.93-16.43 13.324-34.871 23.957-54.633 31.5-30.715 11.613-59.664 27.445-86.016 47.039-51.211 38.836-119.91 107.81-150 213.73-27.609 96.727-10.875 200.81 48.305 282.14 59.977 82.547 175.55 171 394.97 171.42zm-224.6-497.58h450.7c76.617 0 136.78 66.609 127.85 142.69-8.1797 69.867-42.188 149.3-141.61 198.28-32.965 15.953-68.34 26.352-104.7 30.773-35.207 4.4648-70.66 6.7578-106.15 6.8672h-1.5c-35.488-0.10937-70.941-2.4023-106.15-6.8672-36.355-4.4219-71.73-14.82-104.7-30.773-99.492-48.984-133.43-128.41-141.61-198.28-8.9297-76.078 51.234-142.69 127.85-142.69z"/>
 </g>
</svg>

<?xml version="1.0" encoding="UTF-8" standalone="no"?>
<!DOCTYPE svg PUBLIC "-//W3C//DTD SVG 1.1//EN" "http://www.w3.org/Graphics/SVG/1.1/DTD/svg11.dtd">
<svg width="100%" height="100%" viewBox="0 0 431 512" version="1.1" xmlns="http://www.w3.org/2000/svg" xmlns:xlink="http://www.w3.org/1999/xlink" xml:space="preserve" xmlns:serif="http://www.serif.com/" style="fill-rule:evenodd;clip-rule:evenodd;stroke-linejoin:round;stroke-miterlimit:2;">
    <g transform="matrix(1,0,0,1,-143.022,-56.1549)">
        <g transform="matrix(0.470698,0,0,0.470698,75.7019,29.7229)">
            <path d="M521.23,160.92L680.28,160.92C698.378,160.92 715.737,153.729 728.53,140.928C741.327,128.127 748.514,110.768 748.507,92.67L748.507,73.92C748.507,69.209 746.636,64.689 743.304,61.358C739.972,58.027 735.452,56.155 730.742,56.155L470.772,56.155C466.061,56.155 461.541,58.026 458.21,61.358C454.878,64.69 453.007,69.21 453.007,73.92L453.007,92.67C452.999,110.768 460.186,128.127 472.984,140.928C485.777,153.729 503.136,160.92 521.234,160.92L521.23,160.92Z" style="fill:white;fill-rule:nonzero;"/>
            <path d="M599.25,1143.9L600.75,1143.9C820.17,1143.48 935.74,1055.03 995.81,972.48C1054.99,891.152 1071.72,787.07 1044.12,690.34C1013.93,584.52 945.232,515.45 894.115,476.61C867.763,457.016 838.814,441.184 808.099,429.571C788.337,422.028 769.896,411.395 753.466,398.071C711.466,363.665 688.193,311.352 688.193,257.141L688.193,232.368C688.193,226.04 685.67,219.97 681.185,215.505C676.697,211.04 670.615,208.548 664.287,208.579L535.707,208.579C529.395,208.571 523.336,211.075 518.871,215.54C514.402,220.001 511.895,226.056 511.895,232.368L511.895,257.141C511.895,311.422 488.622,363.661 446.622,398.071C430.192,411.395 411.751,422.028 391.989,429.571C361.274,441.184 332.325,457.016 305.973,476.61C254.762,515.446 186.063,584.42 155.973,690.34C128.364,787.067 145.098,891.15 204.278,972.48C264.255,1055.03 379.828,1143.48 599.248,1143.9L599.25,1143.9ZM374.63,646.32L825.35,646.32C901.967,646.32 962.13,712.929 953.2,789.01C945.02,858.877 911.012,938.31 811.59,987.29C778.625,1003.24 743.25,1013.64 706.89,1018.06C671.683,1022.53 636.23,1024.82 600.74,1024.93L599.24,1024.93C563.752,1024.82 528.299,1022.53 493.09,1018.06C456.735,1013.64 421.36,1003.24 388.39,987.29C288.898,938.306 254.96,858.88 246.78,789.01C237.85,712.932 298.014,646.32 374.63,646.32Z" style="fill:white;fill-rule:nonzero;"/>
        </g>
    </g>
</svg>
